!!!!SEGMENT: Wil3009-Si_je_ne_voy_mamie.krn
!!!id: Wil3009
!!!AGN: Chanson
!!!SCT: Adams (1982)
!!!voices: 3
!!!COM: Adrian Willaert
!!!OTL: Si je ne voy m'amie
**kern	**kern	**kern
*part3	*part2	*part1
*staff3	*staff2	*staff1
*I"Tenor	*I"Altus	*I"Superius
*I'T	*I'A	*I'S
*clefGv2	*clefGv2	*clefG2
*k[b-]	*k[b-]	*k[b-]
*F:	*F:	*F:
*M2/1	*M2/1	*M2/1
*met(C|)	*met(C|)	*met(C|)
=1	=1	=1
!LO:TX:a:t=Canon&colon; tenor/altus/superius at the 5th and 9th	!	!
1F	1r	0r
2.c	1c	.
4c	.	.
=2	=2	=2
2c	2.g	1g
2c	.	.
.	4g	.
[1B-y	2g	2.dd
.	2g	.
.	.	4dd
=3	=3	=3
2B-]	1.f	2dd
4A	.	2dd
4G	.	.
2F	.	[1cc
2G	4e	.
.	4d	.
=4	=4	=4
2A	2c	2cc]
2B-y	2d	4b-y
.	.	4a
2c	2e	2g
2A	2f	2a
=5	=5	=5
1G	2g	2b-y
.	2e	2cc
1r	1d	2dd
.	.	2b-y
=6	=6	=6
1F	1r	1a
2.c	1c	1r
4c	.	.
=7	=7	=7
2c	2.g	1g
2c	.	.
.	4g	.
[1B-y	2g	2.dd
.	2g	.
.	.	4dd
=8	=8	=8
2B-]	1.f	2dd
4A	.	2dd
4G	.	.
2F	.	[1cc
2G	4e	.
.	4d	.
=9	=9	=9
2A	2c	2cc]
2B-y	2d	4b-y
.	.	4a
2c	2e	2g
2A	2f	2a
=10	=10	=10
1G	2g	2b-y
.	2e	2cc
2r	1d	2dd
2G	.	2b-y
=11	=11	=11
2F	2r	1a
2D	2d	.
2F	2c	2r
2F	2A	2a
=12	=12	=12
1C	2c	2g
.	2c	2e
2r	1G	2g
2C	.	2g
=13	=13	=13
2.G	2r	1d
.	2G	.
4A	.	.
2B-y	2.d	2r
2B-y	.	2d
.	4e	.
=14	=14	=14
2.F	2f	2.a
.	2f	.
4G	.	4b-y
4A	2.c	2cc
4B-y	.	.
[2c	.	2cc
.	4d	.
=15	=15	=15
2c]	4e	2.g
.	4f	.
4B-y	1g	.
4A	.	4a
1G	.	4b-y
.	.	4cc
.	4f	[2dd
.	4e	.
=16	=16	=16
2r	1d	2dd]
2G	.	4cc
.	.	4b-y
2F	2r	1a
2D	2d	.
=17	=17	=17
2F	2c	2r
2F	2A	2a
1C	2c	2g
.	2c	2e
=18	=18	=18
2r	1G	2g
2C	.	2g
2.G	2r	1d
.	2G	.
4A	.	.
=19	=19	=19
2B-y	2.d	2r
2B-y	.	2d
.	4e	.
2.F	2f	2.a
.	2f	.
4G	.	4b-y
=20	=20	=20
4A	2.c	2cc
4B-y	.	.
1c	.	2cc
.	4d	.
.	4e	2.g
.	4f	.
4B-y	[2g	.
4A	.	4a
=21	=21	=21
1G	2g]	4b-y
.	.	4cc
.	4f	1dd
.	4e	.
2r	1d	.
2G	.	4cc
.	.	4b-y
=22	=22	=22
0F	2r	1a
.	2d	.
.	[1cl	2r
.	.	2a
=23	=23	=23
00Cl	00c]	00gl
==	==	==
*-	*-	*-
!!!system-decoration: [*]
!!!RDF**kern: i = editorial accidental
!!!RDF**kern: l = terminal long
!!!ENC: Benjamin Ory
!!!END: 2020/12/18
!!!EED: Benjamin Ory
!!!EEV: 2021/04/30
!!!YEC: Copyright 2021 Benjamin Ory, All Rights Reserved
!!!ONB: Translated from MusicXML on 2021/04/30
